dist/assets/img/icons/whatsapp.svg

<svg width="20" height="21" viewBox="0 0 20 21" fill="none" xmlns="http://www.w3.org/2000/svg">
<path d="M17.0854 2.92468C16.164 1.99396 15.0665 1.25601 13.8569 0.75388C12.6473 0.251753 11.3499 -0.00450263 10.0402 5.9869e-05C4.55276 5.9869e-05 0.0804022 4.47242 0.0804022 9.95986C0.0804022 11.7187 0.542714 13.4272 1.40704 14.9347L0 20.1006L5.27638 18.7136C6.73367 19.5076 8.37186 19.9297 10.0402 19.9297C15.5276 19.9297 20 15.4573 20 9.96991C20 7.30659 18.9648 4.80408 17.0854 2.92468ZM10.0402 18.2413C8.55276 18.2413 7.09548 17.8393 5.81909 17.0855L5.51759 16.9046L2.38191 17.7287L3.21608 14.6734L3.01508 14.3619C2.18869 13.0422 1.74989 11.5169 1.74874 9.95986C1.74874 5.39704 5.46734 1.67845 10.0301 1.67845C12.2412 1.67845 14.3216 2.54277 15.8794 4.11061C16.6507 4.87842 17.262 5.79168 17.6778 6.79747C18.0936 7.80326 18.3056 8.88158 18.3015 9.96991C18.3216 14.5327 14.603 18.2413 10.0402 18.2413ZM14.5829 12.0503C14.3317 11.9297 13.1055 11.3267 12.8844 11.2362C12.6533 11.1558 12.4925 11.1156 12.3216 11.3568C12.1508 11.6081 11.6784 12.1709 11.5377 12.3317C11.397 12.5026 11.2462 12.5227 10.995 12.392C10.7437 12.2714 9.9397 12.0001 8.99497 11.1558C8.25126 10.4925 7.75879 9.67845 7.60804 9.4272C7.46734 9.17594 7.58794 9.04529 7.71859 8.91463C7.82914 8.80408 7.96985 8.62317 8.09045 8.48247C8.21105 8.34177 8.26131 8.23121 8.34171 8.07041C8.42211 7.89956 8.38191 7.75885 8.32161 7.63825C8.2613 7.51765 7.75879 6.29152 7.55779 5.789C7.35678 5.30659 7.14573 5.36689 6.99497 5.35684H6.51256C6.34171 5.35684 6.0804 5.41715 5.84925 5.6684C5.62814 5.91966 4.98492 6.52267 4.98492 7.7488C4.98492 8.97493 5.8794 10.1609 6 10.3217C6.1206 10.4925 7.75879 13.0051 10.2513 14.0805C10.8442 14.3418 11.3065 14.4925 11.6683 14.6031C12.2613 14.794 12.804 14.7639 13.2362 14.7036C13.7186 14.6332 14.7136 14.1006 14.9146 13.5176C15.1256 12.9347 15.1256 12.4423 15.0553 12.3317C14.9849 12.2212 14.8342 12.1709 14.5829 12.0503Z" fill="white"/>
</svg>

<svg width="20" height="21" fill="none" xmlns="http://www.w3.org/2000/svg"><path d="M17.085 2.925A9.865 9.865 0 0010.04 0C4.553 0 .08 4.472.08 9.96c0 1.759.463 3.467 1.327 4.975L0 20.1l5.276-1.387a9.962 9.962 0 004.764 1.216c5.488 0 9.96-4.473 9.96-9.96a9.897 9.897 0 00-2.915-7.045zM10.04 18.24a8.303 8.303 0 01-4.22-1.155l-.302-.181-3.136.824.834-3.056-.2-.311A8.306 8.306 0 011.748 9.96c0-4.563 3.718-8.282 8.281-8.282 2.211 0 4.292.865 5.85 2.433A8.225 8.225 0 0118.3 9.97c.02 4.563-3.698 8.271-8.26 8.271zm4.543-6.19c-.251-.121-1.478-.724-1.699-.815-.23-.08-.392-.12-.562.12-.171.252-.644.815-.784.976-.141.17-.292.19-.543.06-.251-.12-1.055-.392-2-1.236-.744-.664-1.236-1.478-1.387-1.729-.14-.251-.02-.382.11-.512.111-.11.252-.292.372-.433.121-.14.171-.25.252-.412.08-.17.04-.311-.02-.432-.06-.12-.563-1.346-.764-1.849-.201-.482-.412-.422-.563-.432h-.482a.904.904 0 00-.664.311c-.22.252-.864.855-.864 2.08 0 1.227.894 2.413 1.015 2.574.12.17 1.759 2.683 4.251 3.759a12.17 12.17 0 001.417.522c.593.191 1.136.16 1.568.1.483-.07 1.478-.602 1.679-1.185.21-.583.21-1.076.14-1.186-.07-.11-.22-.161-.472-.282z" fill="#fff"/></svg>
